X:1
T:He Shall Live
T:He Shall Live
T:Scott Werdebaugh, 2018
T:John 1
T:© 2018 Scott Werdebaugh &amp; New Heart Music - May freely copy &amp; use for Christian worship and devotions with no alterations. All other rights reserved.
C:Scott Werdebaugh, 2018
Z:© 2018 Scott Werdebaugh & New Heart Music - May freely copy & use for
Z:Christian worship and devotions with no alterations. All other rights reserved.
%%score 1 ( 2 3 )
L:1/8
Q:1/4=104
M:4/4
K:C
V:1 treble 
V:2 bass 
V:3 bass 
V:1
"^In hopeful anticipation" [EG]2 [DF]2 [CE]4 | [Ec]4 [Fc]2 [DB]2 | [Ec]3 [DB] [Ec]2 [Fd]2 | %3
w: Je- sus said,|“I am the|re- sur- rec- tion|
 [Ge]2 [Fd]2 [Ec]4 | [Ge]2 [Fd][Fd] [Ec]3 [DB] | [Ec]4 [CA]2 [DB][Ec] | [DG]6 z2 | [CA]4 [DB]4 | %8
w: And the life.|He who be- lieves in|Me, Though he may|die,|He shall|
 !fermata![Ec]4 z2 [Ec]2 | [DB]2 [Ec][Ec] [DB]2 [CA]2 | [CA] [CA]2 [DB] [Ec]4 | %11
w: live. And|who- ev- er lives And|be- lieves in Me|
 [Ge]2 ([Fd][Ec]) [DB]4 | [Ec]6 z2 |] %13
w: Shall nev- * er|die.”|
V:2
 [C,C]2 [G,B,]2 [C,G,]4 | [C,G,]4 [F,A,]2 [G,,G,]2 | [C,G,]3 [G,,G,] [C,G,]2 [G,B,]2 | %3
 [C,C]2 [G,,B,]2 [C,G,]4 | [C,C]2 [G,B,][G,B,] [C,G,]3 [G,,G,] | [C,G,]4 [F,,F,]2 [G,,G,][C,G,] | %6
 [G,,B,]6 z2 | [F,,F,]4 [G,,G,]4 | !fermata![C,G,]4 z2 [C,G,]2 | %9
 [G,,G,]2 [C,G,][C,G,] [G,,G,]2 [F,,F,]2 | [F,,F,] [F,,F,]2 [G,,G,] [C,G,]4 | %11
 [C,C]2 ([G,B,][C,G,]) (G,2 F,2) | [C,G,]6 z2 |] %13
V:3
 x8 | x8 | x8 | x8 | x8 | x8 | x8 | x8 | x8 | x8 | x8 | x4 G,,4 | x8 |] %13

